;TIME:1441.47
;Filament used:2.30601m
;Layer height:0.300
; HEADER_BLOCK_START
; generated by Creality_Print V6.1.2.2458 on 2025-07-08 at 15:01:02
; total layer number: 19
; filament_density: 1.24
; filament_diameter: 1.75
; max_z_height: 3.90
; HEADER_BLOCK_END

; MINX = 42.25
; MINY = 77.68
; MINZ = 0.00
; MAXX = 201.21
; MAXY = 156.54
; MAXZ = 4.00

; THUMBNAIL_BLOCK_START

;
; THUMBNAIL_BLOCK_END

; THUMBNAIL_BLOCK_START

;
; THUMBNAIL_BLOCK_END

; external perimeters extrusion width = 0.42mm
; perimeters extrusion width = 0.45mm
; infill extrusion width = 0.45mm
; solid infill extrusion width = 0.42mm
; top infill extrusion width = 0.42mm
; support material extrusion width = 0.40mm
; first layer extrusion width = 0.50mm

; external perimeters extrusion width = 0.42mm
; perimeters extrusion width = 0.45mm
; infill extrusion width = 0.45mm
; solid infill extrusion width = 0.42mm
; top infill extrusion width = 0.42mm
; support material extrusion width = 0.40mm
; first layer extrusion width = 0.50mm

; external perimeters extrusion width = 0.42mm
; perimeters extrusion width = 0.45mm
; infill extrusion width = 0.45mm
; solid infill extrusion width = 0.42mm
; top infill extrusion width = 0.42mm
; support material extrusion width = 0.40mm
; first layer extrusion width = 0.50mm

; external perimeters extrusion width = 0.42mm
; perimeters extrusion width = 0.45mm
; infill extrusion width = 0.45mm
; solid infill extrusion width = 0.42mm
; top infill extrusion width = 0.42mm
; support material extrusion width = 0.40mm
; first layer extrusion width = 0.50mm

; external perimeters extrusion width = 0.42mm
; perimeters extrusion width = 0.45mm
; infill extrusion width = 0.45mm
; solid infill extrusion width = 0.42mm
; top infill extrusion width = 0.42mm
; support material extrusion width = 0.40mm
; first layer extrusion width = 0.50mm

; external perimeters extrusion width = 0.42mm
; perimeters extrusion width = 0.45mm
; infill extrusion width = 0.45mm
; solid infill extrusion width = 0.42mm
; top infill extrusion width = 0.42mm
; support material extrusion width = 0.40mm
; first layer extrusion width = 0.50mm

; EXECUTABLE_BLOCK_START
M73 P0 R24
M201 X5000 Y5000 Z500 E5000
M203 X500 Y500 Z30 E100
M204 P5000 R2500 T5000 ; sets acceleration (P, T) and retract acceleration (R), mm/sec^2
M205 X10.00 Y10.00 Z0.40 E5.00 ; sets the jerk limits, mm/sec
;TYPE:Custom
M220 S100 ;Reset Feedrate 
M221 S100 ;Reset Flowrate 
 
M140 S70 ;Set final bed temp 
G28 ;Home 
 
G92 E0 ;Reset Extruder 
G1 Z2.0 F3000 ;Move Z Axis up 
M104 S205 ;Set final nozzle temp 
G1 X-2.1 Y20 Z0.28 F5000.0 ;Move to start position 
M190 S70 ;Wait for bed temp to stabilize 
M109 S205 ;Wait for nozzle temp to stabilize 
G1 X-2.1 Y145.0 Z0.28 F1500.0 E15 ;Draw the first line 
G1 X-2.4 Y145.0 Z0.28 F5000.0 ;Move to side a little 
M73 P0 R23
M73 P0 R23
G1 X-2.4 Y20 Z0.28 F1500.0 E30 ;Draw the second line 
G92 E0  ;Reset Extruder 
G1 E-1.0000 F1800 ;Retract a bit 
G1 Z2.0 F3000 ;Move Z Axis up 
G1 E0.0000 F1800
G90
G21
M83 ; use relative distances for extrusion
" "
G1 E-1.2 F2400
M106 S0
;LAYER_CHANGE
;Z:0.3
;HEIGHT:0.3
;BEFORE_LAYER_CHANGE
;0.3
G92 E0

;_SET_FAN_SPEED_CHANGING_LAYER
M204 P500
M205 X10 Y10
; printing object LidBoatv2.stl id:94238933275312 copy 0
M204 T500
G1 Z.3 F8100
G1 X43.279 Y105.276
G1 E1.2 F1800
;TYPE:Inner wall
;WIDTH:0.5
G1 F900
G1 X43.17 Y104.901 E.02018
G1 X43.088 Y104.027 E.04528
G1 X43.17 Y103.153 E.04531
G1 X43.407 Y102.334 E.04402
G1 X43.814 Y101.529 E.04657
G1 X44.358 Y100.828 E.04579
G3 X45.242 Y100.096 I3.336 J3.133 E.05937
G1 X46.054 Y99.682 E.04707
G1 X60.6 Y94.364 E.7994
G1 X61.855 Y94.041 E.0669
G1 X62.463 Y93.945 E.03179
G1 X63.795 Y93.866 E.06884
G1 X65.033 Y93.945 E.06406
G1 X65.643 Y94.041 E.03186
G1 X66.9 Y94.364 E.06699
G1 X67.48 Y94.573 E.03184
G1 X68.645 Y95.121 E.06643
G1 X69.732 Y95.811 E.06643
G3 X70.699 Y96.611 I-5.873 J8.084 E.06481
G1 X71.58 Y97.549 E.06643
G1 X72.33 Y98.582 E.06588
G1 X72.95 Y99.709 E.06643
G1 X73.195 Y100.276 E.03184
G1 X73.596 Y101.51 E.06699
G1 X73.731 Y102.112 E.03186
G1 X73.888 Y103.344 E.06406
G1 X73.892 Y104.666 E.06828
M73 P1 R23
M73 P1 R23
G1 X73.731 Y105.942 E.06638
G1 X73.596 Y106.544 E.03185
G1 X73.198 Y107.768 E.06643
G1 X72.655 Y108.923 E.06588
G1 X71.965 Y110.01 E.06643
G1 X71.587 Y110.497 E.03185
G1 X70.706 Y111.436 E.06643
G1 X69.714 Y112.256 E.06643
G3 X68.655 Y112.928 I-5.874 J-8.084 E.06481
G1 X67.48 Y113.481 E.06699
G1 X66.9 Y113.69 E.03184
G1 X65.643 Y114.013 E.06699
G1 X65.034 Y114.109 E.03185
G1 X63.749 Y114.19 E.06643
G1 X62.475 Y114.11 E.06588
G1 X61.222 Y113.871 E.06587
G1 X59.975 Y113.465 E.06767
G1 X46.044 Y108.368 E.76567
G1 X45.512 Y108.118 E.03034
G1 X44.769 Y107.613 E.0464
G1 X44.358 Y107.227 E.02911
G1 X43.813 Y106.525 E.04584
G1 X43.415 Y105.743 E.04528
G1 X43.291 Y105.314 E.02304
G1 X43.033 Y105.953 F8100
;TYPE:Outer wall
G1 F900
G1 X43.008 Y105.904 E.00283
G1 X42.74 Y104.983 E.04953
G1 X42.65 Y104.027 E.04954
G1 X42.74 Y103.071 E.04955
G1 X43 Y102.174 E.04824
G1 X43.444 Y101.295 E.05083
G1 X44.035 Y100.534 E.04972
G3 X45.013 Y99.724 I3.694 J3.469 E.06574
G1 X45.88 Y99.282 E.0502
G1 X60.47 Y93.947 E.80187
G1 X61.767 Y93.614 E.06908
G1 X62.416 Y93.512 E.03394
G1 X63.796 Y93.429 E.07132
G1 X65.081 Y93.511 E.0665
G1 X65.731 Y93.614 E.03397
G1 X67.028 Y93.947 E.06911
G1 X67.647 Y94.17 E.03396
G1 X68.855 Y94.739 E.06891
G1 X69.982 Y95.454 E.06891
G3 X71.002 Y96.298 I-6.194 J8.525 E.06835
G1 X71.916 Y97.271 E.06891
G1 X72.698 Y98.348 E.06871
G1 X73.342 Y99.518 E.06891
G1 X73.603 Y100.121 E.03397
G1 X74.017 Y101.395 E.06911
G1 X74.16 Y102.037 E.03397
G1 X74.323 Y103.315 E.0665
G1 X74.327 Y104.693 E.07112
G1 X74.16 Y106.017 E.06889
G1 X74.017 Y106.659 E.03397
G1 X73.604 Y107.929 E.06891
G1 X73.037 Y109.133 E.06871
G1 X72.322 Y110.261 E.06891
G1 X71.919 Y110.781 E.03397
G1 X71.005 Y111.754 E.06891
G1 X69.976 Y112.605 E.06891
G3 X68.859 Y113.314 I-6.194 J-8.526 E.06835
G1 X67.647 Y113.884 E.06911
G1 X67.028 Y114.107 E.03397
G1 X65.731 Y114.44 E.06911
G1 X65.081 Y114.543 E.03397
G1 X63.749 Y114.627 E.06891
G1 X62.421 Y114.543 E.06871
G1 X61.113 Y114.294 E.0687
G1 X59.832 Y113.877 E.0695
G1 X45.876 Y108.771 E.76708
G1 X45.296 Y108.497 E.03311
G1 X44.496 Y107.954 E.04994
G1 X44.035 Y107.521 E.03265
G1 X43.444 Y106.759 E.04974
G1 X43.051 Y105.989 E.04464
G1 E-1.2 F2400
;WIPE_START
G1 F9000
G1 X43.008 Y105.904
G1 X42.74 Y104.983
G1 X42.651 Y104.041
;WIPE_END
G1 X44.797 Y105.57 Z.5 F8100
G1 Z.3
G1 E1.2 F1800
;TYPE:Inner wall
G1 F900
G1 X44.79 Y105.559 E.00066
G1 X44.543 Y104.935 E.03464
G1 X44.426 Y104.298 E.03345
G1 X44.435 Y103.67 E.03239
G1 X44.56 Y103.056 E.03238
G1 X44.799 Y102.475 E.03239
G1 X45.142 Y101.95 E.03241
G1 X45.663 Y101.439 E.03763
G3 X46.861 Y100.814 I2.317 J2.981 E.07012
G1 X47.479 Y100.705 E.03241
G1 X48.292 Y100.74 E.04202
G1 X48.919 Y100.906 E.03345
G1 X49.483 Y101.18 E.03237
G1 X49.986 Y101.556 E.03241
G1 X50.409 Y102.018 E.03238
G1 X50.739 Y102.552 E.03238
G1 X50.962 Y103.139 E.03239
G1 X51.071 Y103.756 E.03239
G1 X51.063 Y104.384 E.03239
G1 X50.938 Y104.999 E.03238
G1 X50.699 Y105.579 E.03239
G1 X50.356 Y106.104 E.03238
G1 X49.921 Y106.556 E.03239
G1 X49.409 Y106.918 E.03239
G1 X48.837 Y107.178 E.03241
G1 X48.049 Y107.345 E.04156
G1 X47.394 Y107.342 E.03384
G1 X46.778 Y107.216 E.03245
G1 X46.205 Y106.981 E.03193
G1 X45.673 Y106.635 E.03277
G1 X45.22 Y106.199 E.03245
G3 X44.929 Y105.792 I3.711 J-2.957 E.02584
G1 X44.818 Y105.605 E.01125
G1 X45.421 Y105.736 F8100
;TYPE:Outer wall
G1 F900
G1 X45.218 Y105.441 E.01846
G1 X44.948 Y104.775 E.0371
G1 X44.857 Y104.23 E.02854
G1 X44.87 Y103.684 E.02817
G1 X44.985 Y103.151 E.02817
G1 X45.198 Y102.648 E.02817
G1 X45.502 Y102.194 E.02819
G1 X45.961 Y101.757 E.03272
G1 X46.496 Y101.413 E.03283
G1 X47.008 Y101.224 E.02818
G1 X47.547 Y101.135 E.02819
G1 X48.265 Y101.175 E.03711
G1 X48.797 Y101.324 E.02854
G1 X49.285 Y101.568 E.02816
G1 X49.719 Y101.9 E.02819
G1 X50.082 Y102.306 E.02816
G1 X50.364 Y102.774 E.02817
G1 X50.552 Y103.286 E.02817
G1 X50.641 Y103.825 E.02817
G1 X50.628 Y104.37 E.02817
G1 X50.513 Y104.904 E.02817
G1 X50.299 Y105.406 E.02817
G1 X49.996 Y105.859 E.02817
G1 X49.613 Y106.248 E.02817
G1 X49.164 Y106.558 E.02817
G1 X48.664 Y106.778 E.02819
G1 X47.967 Y106.917 E.03668
G1 X47.406 Y106.906 E.02895
G1 X46.873 Y106.791 E.02819
G1 X46.378 Y106.581 E.02774
G1 X45.917 Y106.274 E.02857
G1 X45.528 Y105.891 E.02819
G1 X45.444 Y105.768 E.00768
G1 E-1.2 F2400
;WIPE_START
G1 F9000
G1 X45.218 Y105.441
G1 X44.948 Y104.775
G1 X44.857 Y104.23
G1 X44.865 Y103.899
;WIPE_END
G1 Z.5 F8100
G1 X72.072 Y98.449
G1 Z.5
G1 Z.3
G1 E1.2 F1800
;TYPE:Bottom surface
;WIDTH:0.503604
G1 F4200
G1 X70.451 Y96.828 E.11927
G2 X69.544 Y96.078 I-6.414 J6.84 E.06132
G1 X68.487 Y95.408 E.06511
G1 X68.341 Y95.339 E.0084
G1 X72.413 Y99.411 E.2997
G3 X72.945 Y100.565 I-5.738 J3.347 E.0662
G1 X67.2 Y94.82 E.42283
G2 X66.31 Y94.55 I-1.872 J4.578 E.04851
G1 X73.244 Y101.485 E.5104
G3 X73.423 Y102.285 I-7.39 J2.073 E.04269
G1 X65.486 Y94.347 E.5842
G2 X64.773 Y94.256 I-.848 J3.771 E.03746
G1 X73.514 Y102.997 E.64335
G3 X73.562 Y103.666 I-2.668 J.527 E.035
G1 X64.109 Y94.213 E.69572
G2 X63.486 Y94.211 I-.319 J2.505 E.0325
G1 X73.564 Y104.289 E.74171
G3 X73.535 Y104.881 I-2.302 J.186 E.03096
G1 X62.9 Y94.246 E.78275
G2 X62.33 Y94.297 I-.025 J2.945 E.02985
M73 P2 R23
M73 P2 R23
G1 X73.466 Y105.433 E.8196
G3 X73.388 Y105.977 I-2.914 J-.138 E.02862
G1 X61.804 Y94.392 E.85263
G1 X61.309 Y94.519 E.02656
G1 X73.273 Y106.482 E.8805
G1 X73.12 Y106.951 E.02565
G1 X60.815 Y94.646 E.90567
G2 X60.351 Y94.803 I.556 J2.411 E.02555
G1 X72.968 Y107.42 E.92863
G3 X72.792 Y107.865 I-1.849 J-.475 E.02497
G1 X59.896 Y94.969 E.94914
G1 X59.441 Y95.135 E.0252
G1 X72.593 Y108.287 E.96798
G1 X72.394 Y108.71 E.02429
G1 X58.986 Y95.302 E.98683
G1 X58.531 Y95.468 E.0252
G1 X72.159 Y109.095 E1.00297
G1 X71.917 Y109.475 E.02342
G1 X58.077 Y95.634 E1.0187
G1 X57.622 Y95.801 E.0252
G1 X71.674 Y109.853 E1.03423
G1 X71.402 Y110.202 E.02304
G1 X57.167 Y95.967 E1.04774
G1 X56.712 Y96.133 E.0252
G1 X71.108 Y110.53 E1.05958
G1 X70.808 Y110.85 E.02287
G1 X56.257 Y96.3 E1.07092
G1 X55.802 Y96.466 E.0252
G1 X70.507 Y111.17 E1.08226
G3 X70.17 Y111.455 I-1.294 J-1.19 E.023
G1 X55.347 Y96.632 E1.09095
G1 X54.893 Y96.798 E.0252
G1 X69.83 Y111.736 E1.09941
G3 X69.488 Y112.015 I-1.646 J-1.671 E.02301
G1 X54.438 Y96.965 E1.10769
G1 X53.983 Y97.131 E.0252
G1 X69.118 Y112.266 E1.11394
G3 X68.733 Y112.502 I-2.07 J-2.941 E.02352
G1 X53.528 Y97.297 E1.11909
G1 X53.073 Y97.464 E.0252
G1 X68.33 Y112.72 E1.12288
G1 X67.907 Y112.919 E.02429
G1 X52.618 Y97.63 E1.12527
G1 X52.164 Y97.796 E.0252
G1 X67.485 Y113.118 E1.12766
G3 X67.039 Y113.293 I-1.149 J-2.272 E.02498
G1 X51.709 Y97.963 E1.12829
G1 X51.254 Y98.129 E.0252
G1 X66.564 Y113.439 E1.12681
G1 X66.07 Y113.566 E.02656
G1 X50.799 Y98.295 E1.12391
G1 X50.344 Y98.462 E.0252
G1 X65.575 Y113.693 E1.12101
G1 X65.039 Y113.778 E.02825
G1 X49.889 Y98.628 E1.11502
G1 X49.435 Y98.794 E.0252
G1 X64.458 Y113.818 E1.10576
G1 X63.874 Y113.855 E.03047
G1 X48.98 Y98.961 E1.09622
G1 X48.525 Y99.127 E.0252
G1 X63.228 Y113.83 E1.08215
G1 X62.565 Y113.788 E.03457
G1 X48.07 Y99.293 E1.06684
G1 X47.615 Y99.46 E.0252
G1 X48.64 Y100.484 E.07543
G2 X47.924 Y100.389 I-.676 J2.347 E.03774
G1 X47.16 Y99.626 E.0562
G1 X46.706 Y99.792 E.0252
G1 X47.316 Y100.402 E.0449
G1 X46.79 Y100.498 E.0278
G1 X46.251 Y99.958 E.03971
G2 X45.833 Y100.162 I.63 J1.824 E.02424
G1 X46.333 Y100.662 E.03682
G2 X45.92 Y100.87 I.364 J1.234 E.0242
G1 X45.421 Y100.372 E.03672
G1 X45.061 Y100.632 E.02316
G1 X45.542 Y101.114 E.03546
G1 X45.223 Y101.416 E.02287
G1 X44.732 Y100.924 E.03616
G2 X44.44 Y101.254 I.895 J1.085 E.023
G1 X44.906 Y101.719 E.03423
G1 X44.657 Y102.092 E.02331
G1 X44.169 Y101.604 E.0359
G2 X43.943 Y101.998 I.904 J.781 E.02383
G1 X44.438 Y102.494 E.03648
M73 P3 R23
M73 P3 R23
G1 X44.255 Y102.932 E.0247
G1 X43.734 Y102.411 E.03833
G1 X43.588 Y102.886 E.02586
G1 X44.145 Y103.443 E.041
G1 X44.112 Y103.596 E.00815
G1 X44.102 Y104.021 E.02212
G1 X43.476 Y103.395 E.04607
G1 X43.422 Y103.962 E.02967
G1 X44.415 Y104.955 E.07308
G1 E-1.2 F2400
;WIPE_START
G1 F9000
G1 X43.422 Y103.962
G1 X43.476 Y103.395
G1 X43.494 Y103.413
;WIPE_END
G1 X47.298 Y103.114 Z.5 F8100
G1 X50.981 Y102.825 Z.5
G1 Z.3
G1 E1.2 F1800
G1 F4200
G1 X61.805 Y113.649 E.79667
G3 X60.985 Y113.45 I.378 J-3.344 E.04405
G1 X51.402 Y103.868 E.70526
G1 X51.384 Y104.471 E.03138
G1 X60.063 Y113.15 E.6388
G1 X59.084 Y112.792 E.05429
G1 X51.275 Y104.983 E.57471
G3 X51.11 Y105.439 I-1.751 J-.375 E.02532
G1 X58.104 Y112.433 E.51475
G1 X57.125 Y112.075 E.05429
G1 X50.914 Y105.865 E.45707
G1 X50.656 Y106.227 E.02317
G1 X56.145 Y111.716 E.40402
G1 X55.165 Y111.358 E.05429
G1 X50.37 Y106.563 E.35293
G1 X50.052 Y106.866 E.02286
G1 X54.186 Y110.999 E.30422
G1 X53.206 Y110.641 E.05429
G1 X49.682 Y107.117 E.25939
G3 X49.285 Y107.34 I-.869 J-1.078 E.02384
G1 X52.227 Y110.282 E.21653
G1 X51.247 Y109.924 E.05429
G1 X48.84 Y107.518 E.17712
G3 X48.326 Y107.625 I-.745 J-2.287 E.02738
G1 X50.267 Y109.566 E.14285
G1 X49.288 Y109.207 E.05429
G1 X47.758 Y107.677 E.11261
G1 X47.244 Y107.654 E.02674
G1 X47.074 Y107.614 E.00911
G1 X48.308 Y108.849 E.09084
G1 X47.329 Y108.49 E.05429
G1 X43.473 Y104.635 E.28374
G1 X43.493 Y104.839 E.01067
G1 X43.671 Y105.454 E.03334
G1 X46.349 Y108.132 E.19707
G3 X45.675 Y107.833 I1.335 J-3.926 E.03842
G1 X44.974 Y107.357 E.04411
G3 X43.793 Y106.197 I17.863 J-19.366 E.08615
G1 E-1.2 F2400
;WIPE_START
G1 F9000
G1 X44.974 Y107.357
G1 X45.259 Y107.551
;WIPE_END
G1 X48.892 Y106.381 Z.5 F8100
G1 X72.214 Y98.87 Z.5
G1 Z.3
G1 E1.2 F1800
;TYPE:Gap infill
;WIDTH:0.138652
G1 F900
G1 X72.105 Y98.724 E.0016
;WIDTH:0.16065
G1 X71.963 Y98.558 E.00249
G1 E-1.2 F2400
;WIPE_START
G1 F9000
G1 X72.105 Y98.724
;WIPE_END
G1 X69.228 Y96.217 Z.5 F8100
G1 X68.129 Y95.259 Z.5
G1 Z.3
G1 E1.2 F1800
;WIDTH:0.259803
G1 F900
G1 X68.005 Y95.171 E.00353
;WIDTH:0.218903
G1 X67.88 Y95.084 E.00279
;WIDTH:0.178003
G1 X67.755 Y94.996 E.00205
;WIDTH:0.157553
G1 X67.63 Y94.908 E.00168
G1 E-1.2 F2400
;WIPE_START
G1 F9000
G1 X67.755 Y94.996
;WIPE_END
G1 X66.053 Y94.556 Z.5 F8100
G1 Z.3
G1 E1.2 F1800
;WIDTH:0.133561
G1 F900
G1 X65.854 Y94.356 E.00231
G1 X65.804 Y94.328 E.00048
G1 E-1.2 F2400
;WIPE_START
G1 F9000
G1 X65.854 Y94.356
G1 X66.053 Y94.556
;WIPE_END
G1 X62.475 Y95.882 Z.5 F8100
G1 X49.226 Y100.791 Z.5
G1 Z.3
G1 E1.2 F1800
;WIDTH:0.136903
G1 F900
G1 X49.117 Y100.714 E.00115
;WIDTH:0.180102
G2 X48.862 Y100.541 I-2.195 J2.98 E.00423
G1 E-1.2 F2400
;WIPE_START
G1 F9000
G1 X49.117 Y100.714
;WIPE_END
G1 X46.46 Y103.452 Z.5 F8100
G1 X43.904 Y106.086 Z.5
G1 Z.3
G1 E1.2 F1800
;WIDTH:0.158238
G1 F900
G1 X43.828 Y105.982 E.00143
;WIDTH:0.144377
G1 X43.753 Y105.877 E.00122
G1 E-1.2 F2400
;WIPE_START
G1 F9000
G1 X43.828 Y105.982
;WIPE_END
G1 X46.848 Y107.569 Z.5 F8100
G1 Z.3
G1 E1.2 F1800
;WIDTH:0.121728
G1 F900
G3 X46.582 Y107.403 I1.685 J-3.002 E.00213
; stop printing object LidBoatv2.stl id:94238933275312 copy 0
; printing object LidBoatv3.stl id:176093659146 copy 0
G1 E-1.2 F2400
;WIPE_START
G1 F9000
G1 X46.848 Y107.569
;WIPE_END
G1 X46.927 Y111.384 Z.5 F8100
G1 X47.652 Y146.655 Z.5
G1 Z.3
G1 E1.2 F1800
;TYPE:Inner wall
;WIDTH:0.449614
G1 F900
G1 X47.644 Y146.325 E.01505
G3 X47.687 Y145.997 I2.774 J.194 E.01514
;WIDTH:0.440636
G1 X47.803 Y145.469 E.02408
;WIDTH:0.449616
G3 X48.142 Y144.696 I2.686 J.719 E.03867
;WIDTH:0.440607
G1 X48.444 Y144.248 E.0241
;WIDTH:0.45502
G1 X48.816 Y143.842 E.02546
G1 X49.364 Y143.418 E.03209
;WIDTH:0.451456
G1 X49.987 Y143.101 E.03203
;WIDTH:0.460034
G1 X50.458 Y142.934 E.02345
;WIDTH:0.5
G1 X50.939 Y142.779 E.02611
G1 X64.483 Y137.826 E.74432
G1 X65.616 Y137.535 E.06042
G1 X66.163 Y137.449 E.02855
G1 X67.364 Y137.377 E.06211
G1 X68.482 Y137.448 E.05782
G1 X69.029 Y137.535 E.02862
G1 X70.165 Y137.827 E.06051
G3 X71.251 Y138.261 I-2.699 J8.327 E.06042
G1 X72.232 Y138.802 E.05784
G1 X73.164 Y139.478 E.05941
G1 X74.002 Y140.266 E.05939
G1 X74.743 Y141.161 E.05995
G1 X75.054 Y141.619 E.0286
G1 X75.614 Y142.637 E.05995
